dist/img/video-in.svg

<svg width="52" height="51" viewBox="0 0 52 51" fill="none" xmlns="http://www.w3.org/2000/svg">
<rect width="52" height="51" fill="#E5E5E5"/>
<g clip-path="url(#clip0_199_738)">
<rect width="1600" height="5201" transform="translate(-812 -4715)" fill="white"/>
<g filter="url(#filter0_d_199_738)">
<circle cx="26.2407" cy="25.6298" r="25.2778" fill="#007AB7"/>
<path fill-rule="evenodd" clip-rule="evenodd" d="M21.2241 21.9338H17.4601V34.0559H21.2241V21.9338ZM21.5324 18.0939C21.5324 16.8887 20.5529 15.9077 19.3496 15.9077C18.1392 15.9077 17.1667 16.8887 17.1667 18.0939C17.1667 19.2991 18.1392 20.2801 19.3496 20.2801C20.5529 20.2801 21.5324 19.2991 21.5324 18.0939ZM27.1921 21.9337H23.596V34.0559H27.353V28.0579C27.353 26.4813 27.6468 24.9468 29.6058 24.9468C31.5367 24.9468 31.5577 26.7546 31.5577 28.163V34.0559H35.3147V27.4132C35.3147 24.148 34.6081 21.6395 30.8021 21.6395C28.9691 21.6395 27.7448 22.6415 27.2411 23.5944H27.1921V21.9337Z" fill="white"/>
</g>
</g>
<path d="M-1655.5 -363.5C-1658 -363.5 -1660 -361.5 -1660 -359C-1660 -356.5 -1658 -354.5 -1655.5 -354.5C-1653 -354.5 -1651 -356.5 -1651 -359C-1651 -361.5 -1653 -363.5 -1655.5 -363.5Z" fill="white"/>
<path d="M946.061 693.061C946.646 692.475 946.646 691.525 946.061 690.939L936.515 681.393C935.929 680.808 934.979 680.808 934.393 681.393C933.808 681.979 933.808 682.929 934.393 683.515L942.879 692L934.393 700.485C933.808 701.071 933.808 702.021 934.393 702.607C934.979 703.192 935.929 703.192 936.515 702.607L946.061 693.061ZM-1658.5 -359C-1658.5 -360.672 -1657.17 -362 -1655.5 -362V-365C-1658.83 -365 -1661.5 -362.328 -1661.5 -359H-1658.5ZM-1655.5 -362C-1653.83 -362 -1652.5 -360.672 -1652.5 -359H-1649.5C-1649.5 -362.328 -1652.17 -365 -1655.5 -365V-362ZM-1652.5 -359C-1652.5 -357.328 -1653.83 -356 -1655.5 -356V-353C-1652.17 -353 -1649.5 -355.672 -1649.5 -359H-1652.5ZM-1655.5 -356C-1657.17 -356 -1658.5 -357.328 -1658.5 -359H-1661.5C-1661.5 -355.672 -1658.83 -353 -1655.5 -353V-356ZM-1657 -354.5V672H-1654V-354.5H-1657ZM-1635.5 693.5H945V690.5H-1635.5V693.5ZM-1657 672C-1657 683.874 -1647.37 693.5 -1635.5 693.5V690.5C-1645.72 690.5 -1654 682.217 -1654 672H-1657Z" fill="black"/>
<defs>
<filter id="filter0_d_199_738" x="-14.5927" y="-7.42573" width="81.6668" height="81.6668" filterUnits="userSpaceOnUse" color-interpolation-filters="sRGB">
<feFlood flood-opacity="0" result="BackgroundImageFix"/>
<feColorMatrix in="SourceAlpha" type="matrix" values="0 0 0 0 0 0 0 0 0 0 0 0 0 0 0 0 0 0 127 0" result="hardAlpha"/>
<feOffset dy="7.77778"/>
<feGaussianBlur stdDeviation="7.77778"/>
<feColorMatrix type="matrix" values="0 0 0 0 0 0 0 0 0 0 0 0 0 0 0 0 0 0 0.1 0"/>
<feBlend mode="normal" in2="BackgroundImageFix" result="effect1_dropShadow_199_738"/>
<feBlend mode="normal" in="SourceGraphic" in2="effect1_dropShadow_199_738" result="shape"/>
</filter>
<clipPath id="clip0_199_738">
<rect width="1600" height="5201" fill="white" transform="translate(-812 -4715)"/>
</clipPath>
</defs>
</svg>

<svg width="52" height="51" fill="none" xmlns="http://www.w3.org/2000/svg"><path fill="#E5E5E5" d="M0 0h52v51H0z"/><g clip-path="url(#a)"><path fill="#fff" d="M-812-4715H788V486H-812z"/><g filter="url(#b)"><circle cx="26.241" cy="25.63" r="25.278" fill="#007AB7"/><path fill-rule="evenodd" clip-rule="evenodd" d="M21.224 21.934H17.46v12.122h3.764V21.934Zm.308-3.84a2.183 2.183 0 1 0-4.366 0 2.183 2.183 0 1 0 4.366 0Zm5.66 3.84h-3.596v12.122h3.757v-5.998c0-1.577.294-3.111 2.253-3.111 1.93 0 1.952 1.808 1.952 3.216v5.893h3.757v-6.643c0-3.265-.707-5.773-4.513-5.773-1.833 0-3.057 1.002-3.56 1.954h-.05v-1.66Z" fill="#fff"/></g></g><path d="M-1655.5-363.5c-2.5 0-4.5 2-4.5 4.5s2 4.5 4.5 4.5 4.5-2 4.5-4.5-2-4.5-4.5-4.5Z" fill="#fff"/><path d="M946.061 693.061a1.502 1.502 0 0 0 0-2.122l-9.546-9.546a1.502 1.502 0 0 0-2.122 0 1.502 1.502 0 0 0 0 2.122l8.486 8.485-8.486 8.485a1.502 1.502 0 0 0 0 2.122 1.502 1.502 0 0 0 2.122 0l9.546-9.546ZM-1658.5-359c0-1.672 1.33-3 3-3v-3c-3.33 0-6 2.672-6 6h3Zm3-3c1.67 0 3 1.328 3 3h3c0-3.328-2.67-6-6-6v3Zm3 3c0 1.672-1.33 3-3 3v3c3.33 0 6-2.672 6-6h-3Zm-3 3c-1.67 0-3-1.328-3-3h-3c0 3.328 2.67 6 6 6v-3Zm-1.5 1.5V672h3V-354.5h-3Zm21.5 1048H945v-3h-2580.5v3ZM-1657 672c0 11.874 9.63 21.5 21.5 21.5v-3c-10.22 0-18.5-8.283-18.5-18.5h-3Z" fill="#000"/><defs><clipPath id="a"><path fill="#fff" transform="translate(-812 -4715)" d="M0 0h1600v5201H0z"/></clipPath><filter id="b" x="-14.593" y="-7.426" width="81.667" height="81.667" filterUnits="userSpaceOnUse" color-interpolation-filters="sRGB"><feFlood flood-opacity="0" result="BackgroundImageFix"/><feColorMatrix in="SourceAlpha" values="0 0 0 0 0 0 0 0 0 0 0 0 0 0 0 0 0 0 127 0" result="hardAlpha"/><feOffset dy="7.778"/><feGaussianBlur stdDeviation="7.778"/><feColorMatrix values="0 0 0 0 0 0 0 0 0 0 0 0 0 0 0 0 0 0 0.1 0"/><feBlend in2="BackgroundImageFix" result="effect1_dropShadow_199_738"/><feBlend in="SourceGraphic" in2="effect1_dropShadow_199_738" result="shape"/></filter></defs></svg>
